icons/1_Primary/Zendesk.svg

<svg xmlns="http://www.w3.org/2000/svg" width="1024" height="1024" fill="none">
   <g clip-path="url(#a)">
      <path fill="#73ADA4" d="M512 1024c282.77 0 512-229.23 512-512S794.77 0 512 0 0 229.23 0 512s229.23 512 512 512Z"/>
      <path fill="#fff" d="M495.12 432.74V680H290.34l204.78-247.26Zm0-88.74a102.394 102.394 0 0 1-174.799 72.404A102.394 102.394 0 0 1 290.33 344h204.79Zm33.75 336a102.394 102.394 0 0 1 174.799-72.404A102.394 102.394 0 0 1 733.66 680H528.87Zm0-88.75V344h204.79L528.87 591.25Z"/>
   </g>
   <defs>
      <clipPath id="a">
         <path fill="#fff" d="M0 0h1024v1024H0z"/>
      </clipPath>
   </defs>
</svg>

<svg width="1024" height="1024" viewBox="0 0 1024 1024" fill="none" xmlns="http://www.w3.org/2000/svg">
<g clip-path="url(#clip0_2_4024)">
<path d="M512 1024C794.77 1024 1024 794.77 1024 512C1024 229.23 794.77 0 512 0C229.23 0 0 229.23 0 512C0 794.77 229.23 1024 512 1024Z" fill="#73ADA4"/>
<path d="M495.12 432.74V680H290.34L495.12 432.74ZM495.12 344C495.12 371.157 484.332 397.201 465.129 416.404C445.927 435.607 419.882 446.395 392.725 446.395C365.568 446.395 339.524 435.607 320.321 416.404C301.118 397.201 290.33 371.157 290.33 344H495.12ZM528.87 680C528.87 652.843 539.658 626.799 558.861 607.596C578.064 588.393 604.108 577.605 631.265 577.605C658.422 577.605 684.466 588.393 703.669 607.596C722.872 626.799 733.66 652.843 733.66 680H528.87ZM528.87 591.25V344H733.66L528.87 591.25Z" fill="white"/>
</g>
<defs>
<clipPath id="clip0_2_4024">
<rect width="1024" height="1024" fill="white"/>
</clipPath>
</defs>
</svg>
